packages/kaspersky-hexa-ui-icons/src/iconsSVGs/24/BellActiv.svg

<svg width="24" height="24" viewBox="0 0 24 24" fill="none" xmlns="http://www.w3.org/2000/svg">
<path d="M12.5 2C11.9477 2 11.5 2.44772 11.5 3V4C11.5 4.02372 11.5008 4.04724 11.5025 4.07054C8.10898 4.55472 5.50002 7.47268 5.50002 11V17C4.94773 17 4.5 17.4477 4.5 18C4.5 18.5523 4.94772 19 5.5 19H19.5C20.0523 19 20.5 18.5523 20.5 18C20.5 17.4477 20.0523 17 19.5 17V11C19.5 7.47268 16.8911 4.55472 13.4976 4.07054C13.4992 4.04724 13.5 4.02372 13.5 4V3C13.5 2.44772 13.0523 2 12.5 2Z" fill="black"/>
<path d="M12.5 22C13.6046 22 14.5 21.1046 14.5 20H10.5C10.5 21.1046 11.3954 22 12.5 22Z" fill="black"/>
</svg>

<svg xmlns="http://www.w3.org/2000/svg" width="24" height="24" fill="none" viewBox="0 0 24 24"><path fill="#000" d="M12.5 2c-.552 0-1 .448-1 1v1q0 .036.003.071C8.109 4.555 5.5 7.473 5.5 11v6c-.552 0-1 .448-1 1s.448 1 1 1h14c.552 0 1-.448 1-1s-.448-1-1-1v-6c0-3.527-2.609-6.445-6.002-6.929A1 1 0 0 0 13.5 4V3c0-.552-.448-1-1-1m0 20c1.105 0 2-.895 2-2h-4c0 1.105.895 2 2 2"/></svg>
